img/pie.svg

<svg width="313" height="351" viewBox="0 0 313 351" fill="none" xmlns="http://www.w3.org/2000/svg">
<path d="M413.608 -236.011C543.897 -201.1 621.216 -67.18 586.305 63.1084C551.394 193.397 417.474 270.716 287.185 235.805C156.897 200.894 79.578 66.9741 114.489 -63.3143C149.399 -193.603 283.32 -270.922 413.608 -236.011ZM292.622 215.517C411.705 247.425 534.108 176.756 566.017 57.6723C597.925 -61.4114 527.256 -183.815 408.172 -215.723C289.088 -247.631 166.685 -176.962 134.777 -57.8782C102.868 61.2055 173.538 183.609 292.622 215.517Z" fill="#FAFAFA"/>
<path d="M114.489 -63.3143C126.286 -107.344 150.17 -147.193 183.438 -178.353C216.707 -209.514 258.031 -230.743 302.737 -239.638C347.444 -248.533 393.747 -244.739 436.409 -228.686C479.071 -212.633 516.389 -184.961 544.142 -148.801C571.895 -112.641 588.974 -69.4358 593.448 -24.0734C597.921 21.2889 589.611 66.998 569.457 107.883C549.303 148.768 518.109 183.196 479.405 207.274C440.701 231.352 396.03 244.118 350.448 244.127L350.444 223.123C392.106 223.115 432.934 211.447 468.31 189.44C503.686 167.433 532.197 135.965 550.618 98.5961C569.039 61.2274 576.634 19.4492 572.545 -22.012C568.456 -63.4732 552.846 -102.963 527.48 -136.013C502.114 -169.063 468.005 -194.355 429.012 -209.028C390.019 -223.7 347.697 -227.168 306.836 -219.038C265.975 -210.908 228.204 -191.505 197.797 -163.024C167.39 -134.543 145.56 -98.1209 134.777 -57.8782L114.489 -63.3143Z" fill="#FAFAFA"/>
<path d="M424.445 -276.453C577.068 -235.557 667.642 -78.6791 626.747 73.9445C585.851 226.568 428.973 317.142 276.349 276.246C123.726 235.351 33.1523 78.4729 74.0476 -74.1507C114.943 -226.774 271.821 -317.348 424.445 -276.453ZM282.718 252.48C422.216 289.859 565.602 207.074 602.98 67.5764C640.359 -71.9215 557.575 -215.308 418.077 -252.687C278.579 -290.065 135.192 -207.281 97.8137 -67.7826C60.4353 71.7153 143.22 215.102 282.718 252.48Z" fill="#FAFAFA"/>
<path d="M74.0476 -74.1507C88.6929 -128.807 119.217 -177.894 161.76 -215.203C204.302 -252.512 256.953 -276.368 313.054 -283.754C369.155 -291.139 426.186 -281.723 476.935 -256.697C527.684 -231.67 569.873 -192.156 598.165 -143.152C626.458 -94.1482 639.583 -37.8551 635.883 18.6086C632.182 75.0723 611.821 129.171 577.374 174.062C542.927 218.954 495.942 252.623 442.36 270.812C388.778 289 331.006 290.892 276.349 276.246L282.718 252.48C332.674 265.866 385.478 264.137 434.451 247.513C483.425 230.889 526.37 200.115 557.854 159.084C589.338 118.053 607.948 68.6072 611.331 16.9994C614.713 -34.6084 602.716 -86.0603 576.857 -130.85C550.998 -175.639 512.438 -211.755 466.053 -234.63C419.668 -257.504 367.541 -266.11 316.265 -259.36C264.989 -252.609 216.866 -230.805 177.982 -196.704C139.098 -162.604 111.199 -117.739 97.8137 -67.7826L74.0476 -74.1507Z" fill="#FAFAFA"/>
<path d="M402.772 -195.57C510.725 -166.644 574.789 -55.6814 545.863 52.2719C516.937 160.225 405.975 224.289 298.021 195.363C190.068 166.437 126.004 55.4749 154.93 -52.4784C183.856 -160.432 294.818 -224.496 402.772 -195.57ZM303.416 175.23C400.25 201.177 499.784 143.711 525.73 46.8773C551.677 -49.9568 494.211 -149.49 397.377 -175.437C300.543 -201.384 201.01 -143.918 175.063 -47.0838C149.116 49.7503 206.582 149.284 303.416 175.23Z" fill="#FAFAFA"/>
<path d="M154.93 -52.4784C162.964 -82.4606 177.787 -110.193 198.253 -133.53C218.719 -156.867 244.279 -175.183 272.956 -187.061C301.633 -198.94 332.658 -204.062 363.632 -202.032C394.605 -200.002 424.696 -190.874 451.578 -175.354C478.459 -159.834 501.41 -138.338 518.654 -112.53C535.899 -86.7208 546.976 -57.291 551.027 -26.5168C555.079 4.25753 551.997 35.5514 542.019 64.9439C532.042 94.3365 515.437 121.04 493.488 142.988L478.75 128.25C498.437 108.562 513.332 84.6092 522.282 58.2441C531.232 31.8789 533.997 3.80837 530.362 -23.7962C526.728 -51.4007 516.792 -77.7992 501.324 -100.95C485.855 -124.1 465.268 -143.382 441.156 -157.303C417.043 -171.224 390.052 -179.412 362.268 -181.233C334.485 -183.054 306.656 -178.46 280.932 -167.805C255.209 -157.15 232.282 -140.72 213.924 -119.787C195.566 -98.8536 182.269 -73.9778 175.063 -47.0838L154.93 -52.4784Z" fill="#FAFAFA"/>
<path d="M391.935 -155.128C477.553 -132.187 528.363 -44.1823 505.422 41.4358C482.48 127.054 394.475 177.864 308.857 154.922C223.239 131.981 172.43 43.9761 195.371 -41.642C218.312 -127.26 306.317 -178.07 391.935 -155.128ZM314.257 134.769C388.745 154.728 465.309 110.524 485.268 36.0358C505.227 -38.452 461.023 -115.016 386.535 -134.975C312.047 -154.934 235.483 -110.73 215.524 -36.2419C195.565 38.2458 239.77 114.81 314.257 134.769Z" fill="#FAFAFA"/>
<path d="M195.371 -41.642C200.826 -62.0002 210.237 -81.0846 223.068 -97.8056C235.898 -114.527 251.897 -128.557 270.149 -139.095C288.402 -149.633 308.552 -156.473 329.448 -159.224C350.344 -161.975 371.577 -160.583 391.935 -155.128C412.293 -149.673 431.378 -140.262 448.099 -127.431C464.82 -114.601 478.85 -98.6027 489.388 -80.35C499.926 -62.0974 506.766 -41.9478 509.517 -21.0517C512.268 -0.155637 510.876 21.0777 505.421 41.4359L485.268 36.0358C490.014 18.3242 491.225 -0.148808 488.831 -18.3284C486.438 -36.508 480.487 -54.0381 471.319 -69.9179C462.151 -85.7978 449.945 -99.7163 435.397 -110.879C420.85 -122.041 404.247 -130.229 386.535 -134.975C368.823 -139.721 350.35 -140.932 332.171 -138.538C313.991 -136.145 296.461 -130.194 280.581 -121.026C264.702 -111.858 250.783 -99.6516 239.62 -85.1043C228.458 -70.557 220.27 -53.9536 215.524 -36.2419L195.371 -41.642Z" fill="#FAFAFA"/>
<path d="M381.101 -114.687C444.384 -97.7302 481.938 -32.6832 464.982 30.5997C448.025 93.8827 382.978 131.438 319.695 114.481C256.412 97.5244 218.857 32.4773 235.814 -30.8056C252.771 -94.0886 317.818 -131.643 381.101 -114.687ZM325.068 94.4288C377.277 108.418 430.94 77.4352 444.93 25.2268C458.919 -26.9817 427.936 -80.6455 375.728 -94.6347C323.519 -108.624 269.855 -77.6411 255.866 -25.4326C241.877 26.7758 272.86 80.4396 325.068 94.4288Z" fill="#FAFAFA"/>
<path d="M235.814 -30.8056C242.573 -56.0315 257.468 -78.3219 278.188 -94.2191C298.908 -110.116 324.295 -118.732 350.41 -118.729C376.526 -118.726 401.911 -110.105 422.628 -94.2039C443.344 -78.3024 458.234 -56.0089 464.988 -30.7816L444.935 -25.4128C439.363 -46.2254 427.079 -64.6175 409.987 -77.7363C392.896 -90.855 371.954 -97.9671 350.408 -97.9694C328.863 -97.9716 307.919 -90.8639 290.825 -77.7487C273.731 -64.6336 261.443 -46.244 255.866 -25.4326L235.814 -30.8056Z" fill="#FAFAFA"/>
<path d="M370.264 -74.2458C411.212 -63.2739 435.512 -21.1846 424.54 19.7632C413.568 60.711 371.479 85.0112 330.531 74.0393C289.583 63.0674 265.283 20.9781 276.255 -19.9697C287.227 -60.9175 329.316 -85.2177 370.264 -74.2458ZM335.895 54.0208C365.787 62.0303 396.512 44.2911 404.522 14.3992C412.531 -15.4926 394.792 -46.2178 364.9 -54.2273C335.008 -62.2368 304.283 -44.4976 296.274 -14.6057C288.264 15.2861 306.003 46.0113 335.895 54.0208Z" fill="#FAFAFA"/>
<path d="M276.255 -19.9697C279.303 -31.3435 284.926 -41.8638 292.691 -50.7163C300.455 -59.5689 310.152 -66.5165 321.031 -71.0215C331.91 -75.5265 343.68 -77.4681 355.43 -76.6961C367.18 -75.9241 378.594 -72.4593 388.791 -66.5696L378.424 -48.6237C370.981 -52.9231 362.649 -55.4525 354.071 -56.016C345.494 -56.5796 336.902 -55.1622 328.96 -51.8736C321.018 -48.5849 313.939 -43.5132 308.271 -37.0508C302.604 -30.5884 298.498 -22.9087 296.274 -14.6057L276.255 -19.9697Z" fill="#FAFAFA"/>
</svg>

<svg width="313" height="351" fill="none" xmlns="http://www.w3.org/2000/svg"><path d="M413.608-236.011C543.897-201.1 621.216-67.18 586.305 63.109c-34.911 130.288-168.831 207.607-299.12 172.696-130.288-34.911-207.607-168.83-172.696-299.12 34.91-130.288 168.831-207.607 299.119-172.696ZM292.622 215.517c119.083 31.908 241.486-38.761 273.395-157.845 31.908-119.083-38.761-241.487-157.845-273.395-119.084-31.908-241.487 38.761-273.395 157.845-31.909 119.084 38.761 241.487 157.845 273.395Z" fill="#FAFAFA"/><path d="M114.489-63.314a244.232 244.232 0 0 1 429.653-85.487 244.229 244.229 0 0 1-193.694 392.928l-.004-21.004A223.219 223.219 0 0 0 550.618 98.596 223.226 223.226 0 1 0 134.777-57.878l-20.288-5.436Z" fill="#FAFAFA"/><path d="M424.445-276.453C577.068-235.557 667.642-78.679 626.747 73.944c-40.896 152.624-197.774 243.198-350.398 202.302C123.726 235.351 33.152 78.473 74.048-74.151c40.895-152.623 197.773-243.197 350.397-202.302ZM282.718 252.48c139.498 37.379 282.884-45.406 320.262-184.904 37.379-139.498-45.405-282.884-184.903-320.263-139.498-37.378-282.885 45.406-320.263 184.904C60.435 71.715 143.22 215.102 282.718 252.48Z" fill="#FAFAFA"/><path d="M74.048-74.15a286.1 286.1 0 0 1 524.117-69.002 286.1 286.1 0 0 1-20.791 317.214 286.102 286.102 0 0 1-301.025 102.184l6.369-23.766A261.491 261.491 0 0 0 611.331 17a261.501 261.501 0 0 0-145.278-251.63A261.493 261.493 0 0 0 97.813-67.783L74.049-74.15Z" fill="#FAFAFA"/><path d="M402.772-195.57C510.725-166.644 574.789-55.681 545.863 52.272c-28.926 107.953-139.888 172.017-247.842 143.091C190.068 166.437 126.004 55.475 154.93-52.478c28.926-107.954 139.888-172.018 247.842-143.092Zm-99.356 370.8c96.834 25.947 196.368-31.519 222.314-128.353 25.947-96.834-31.519-196.367-128.353-222.314-96.834-25.947-196.367 31.519-222.314 128.353-25.947 96.834 31.519 196.368 128.353 222.314Z" fill="#FAFAFA"/><path d="M154.93-52.478a202.366 202.366 0 0 1 118.026-134.583 202.356 202.356 0 0 1 178.622 11.707 202.361 202.361 0 0 1 41.91 318.342L478.75 128.25a181.532 181.532 0 0 0 43.532-70.006 181.527 181.527 0 0 0-20.958-159.194 181.527 181.527 0 0 0-139.056-80.283 181.519 181.519 0 0 0-187.205 134.15l-20.133-5.395Z" fill="#FAFAFA"/><path d="M391.935-155.128c85.618 22.941 136.428 110.946 113.487 196.564-22.942 85.618-110.947 136.428-196.565 113.486C223.239 131.981 172.43 43.976 195.371-41.642c22.941-85.618 110.946-136.428 196.564-113.486Zm-77.678 289.897c74.488 19.959 151.052-24.245 171.011-98.733 19.959-74.488-24.245-151.052-98.733-171.011-74.488-19.959-151.052 24.245-171.011 98.733-19.959 74.488 24.246 151.052 98.733 171.011Z" fill="#FAFAFA"/><path d="M195.371-41.642a160.486 160.486 0 0 1 74.778-97.453 160.503 160.503 0 0 1 121.786-16.033A160.49 160.49 0 0 1 509.517-21.052a160.494 160.494 0 0 1-4.096 62.488l-20.153-5.4a139.626 139.626 0 0 0-153.097-174.574A139.627 139.627 0 0 0 215.524-36.242l-20.153-5.4Z" fill="#FAFAFA"/><path d="M381.101-114.687C444.384-97.73 481.938-32.683 464.982 30.6c-16.957 63.283-82.004 100.838-145.287 83.881-63.283-16.957-100.838-82.004-83.881-145.287 16.957-63.283 82.004-100.837 145.287-83.881ZM325.068 94.429c52.209 13.989 105.872-16.994 119.862-69.202 13.989-52.209-16.994-105.873-69.202-119.862-52.209-13.989-105.873 16.994-119.862 69.202C241.877 26.776 272.86 80.44 325.068 94.43Z" fill="#FAFAFA"/><path d="M235.814-30.806a118.624 118.624 0 0 1 186.814-63.398 118.628 118.628 0 0 1 42.36 63.422l-20.053 5.37a97.862 97.862 0 0 0-94.527-72.557 97.867 97.867 0 0 0-94.542 72.536l-20.052-5.373Z" fill="#FAFAFA"/><path d="M370.264-74.246c40.948 10.972 65.248 53.061 54.276 94.01-10.972 40.947-53.061 65.247-94.009 54.275-40.948-10.972-65.248-53.06-54.276-94.009 10.972-40.947 53.061-65.248 94.009-54.276ZM335.895 54.021c29.892 8.01 60.617-9.73 68.627-39.622 8.009-29.892-9.73-60.617-39.622-68.626-29.892-8.01-60.617 9.73-68.626 39.621-8.01 29.892 9.729 60.617 39.621 68.627Z" fill="#FAFAFA"/><path d="M276.255-19.97a76.755 76.755 0 0 1 44.776-51.052 76.757 76.757 0 0 1 67.76 4.452l-10.367 17.946a56.028 56.028 0 0 0-49.464-3.25 56.035 56.035 0 0 0-32.686 37.268l-20.019-5.364Z" fill="#FAFAFA"/></svg>
